assets/img/braze_icons/thermometer-warm.svg

<svg fill="none" height="24" viewBox="0 0 24 24" width="24" xmlns="http://www.w3.org/2000/svg"><g clip-rule="evenodd" fill="#801ed7" fill-rule="evenodd"><path d="m8.92141 9.01012c.89002-.67245 1.97939-1.02796 3.09469-1.00999.5522.0089.9927.46377.9838 1.01598s-.4638.99269-1.016.98376c-.6692-.01078-1.3228.20253-1.8568.60603-.53404.4034-.9178.9739-1.09025 1.6206s-.1237 1.3325.13851 1.9483.72281 1.1262 1.30854 1.4501c.4833.2672.6585.8757.3912 1.359-.2672.4833-.87567.6585-1.35899.3912-.9762-.5397-1.74387-1.3905-2.18088-2.4168s-.51827-2.1693-.23085-3.2471c.28742-1.0779.92701-2.02862 1.81703-2.70108z"/><path d="m12 2c.5523 0 1 .44772 1 1v2c0 .55228-.4477 1-1 1s-1-.44772-1-1v-2c0-.55228.4477-1 1-1z"/><path d="m7.30711 17.6929c.39052.3905.39052 1.0237 0 1.4142l-1.4 1.4c-.39053.3905-1.02369.3905-1.41422 0-.39052-.3905-.39052-1.0237 0-1.4142l1.4-1.4c.39053-.3905 1.02369-.3905 1.41422 0z"/><path d="m1 13c0-.5523.44772-1 1-1h2c.55228 0 1 .4477 1 1s-.44772 1-1 1h-2c-.55228 0-1-.4477-1-1z"/><path d="m4.49289 5.49289c.39053-.39052 1.02369-.39052 1.41422 0l1.4 1.4c.39052.39053.39052 1.02369 0 1.41422-.39053.39052-1.02369.39052-1.41422 0l-1.4-1.4c-.39052-.39053-.39052-1.02369 0-1.41422z"/><path d="m15 4c0-1.65685 1.3431-3 3-3s3 1.34315 3 3v9.9998c1.213.9111 2 2.3633 2 4.0002 0 2.7614-2.2386 5-5 5s-5-2.2386-5-5c0-1.6369.787-3.0891 2-4.0002z"/></g></svg>

<svg width="24" height="24" viewBox="0 0 24 24" fill="none" xmlns="http://www.w3.org/2000/svg">
<path fill-rule="evenodd" clip-rule="evenodd" d="M8.92141 9.01012C9.81143 8.33767 10.9008 7.98216 12.0161 8.00013C12.5683 8.00903 13.0088 8.4639 12.9999 9.01611C12.991 9.56832 12.5361 10.0088 11.9839 9.99987C11.3147 9.98909 10.6611 10.2024 10.1271 10.6059C9.59306 11.0093 9.2093 11.5798 9.03685 12.2265C8.8644 12.8732 8.91315 13.559 9.17536 14.1748C9.43757 14.7906 9.89817 15.301 10.4839 15.6249C10.9672 15.8921 11.1424 16.5006 10.8751 16.9839C10.6079 17.4672 9.99943 17.6424 9.51611 17.3751C8.53991 16.8354 7.77224 15.9846 7.33523 14.9583C6.89822 13.932 6.81696 12.789 7.10438 11.7112C7.3918 10.6333 8.03139 9.68258 8.92141 9.01012Z" fill="#801ED7"/>
<path fill-rule="evenodd" clip-rule="evenodd" d="M12 2C12.5523 2 13 2.44772 13 3V5C13 5.55228 12.5523 6 12 6C11.4477 6 11 5.55228 11 5V3C11 2.44772 11.4477 2 12 2Z" fill="#801ED7"/>
<path fill-rule="evenodd" clip-rule="evenodd" d="M7.30711 17.6929C7.69763 18.0834 7.69763 18.7166 7.30711 19.1071L5.90711 20.5071C5.51658 20.8976 4.88342 20.8976 4.49289 20.5071C4.10237 20.1166 4.10237 19.4834 4.49289 19.0929L5.89289 17.6929C6.28342 17.3024 6.91658 17.3024 7.30711 17.6929Z" fill="#801ED7"/>
<path fill-rule="evenodd" clip-rule="evenodd" d="M1 13C1 12.4477 1.44772 12 2 12H4C4.55228 12 5 12.4477 5 13C5 13.5523 4.55228 14 4 14H2C1.44772 14 1 13.5523 1 13Z" fill="#801ED7"/>
<path fill-rule="evenodd" clip-rule="evenodd" d="M4.49289 5.49289C4.88342 5.10237 5.51658 5.10237 5.90711 5.49289L7.30711 6.89289C7.69763 7.28342 7.69763 7.91658 7.30711 8.30711C6.91658 8.69763 6.28342 8.69763 5.89289 8.30711L4.49289 6.90711C4.10237 6.51658 4.10237 5.88342 4.49289 5.49289Z" fill="#801ED7"/>
<path fill-rule="evenodd" clip-rule="evenodd" d="M15 4C15 2.34315 16.3431 1 18 1C19.6569 1 21 2.34315 21 4V13.9998C22.213 14.9109 23 16.3631 23 18C23 20.7614 20.7614 23 18 23C15.2386 23 13 20.7614 13 18C13 16.3631 13.787 14.9109 15 13.9998V4Z" fill="#801ED7"/>
</svg>
